packages/ffe-icons/icons/open/400/sm/exclamation.svg

<svg xmlns="http://www.w3.org/2000/svg" height="20" viewBox="0 -960 960 960" width="20"><path d="M480.21-384q-15.21 0-25.71-10.35T444-420v-264q0-15.3 10.29-25.65Q464.58-720 479.79-720t25.71 10.35Q516-699.3 516-684v264q0 15.3-10.29 25.65Q495.42-384 480.21-384Zm0 144q-15.21 0-25.71-10.29t-10.5-25.5q0-15.21 10.29-25.71t25.5-10.5q15.21 0 25.71 10.29t10.5 25.5q0 15.21-10.29 25.71t-25.5 10.5Z"/></svg>

<svg xmlns="http://www.w3.org/2000/svg" height="20" viewBox="0 -960 960 960" width="20"><path d="M480.211-384Q465-384 454.5-394.35 444-404.7 444-420v-264q0-15.3 10.289-25.65 10.29-10.35 25.5-10.35Q495-720 505.5-709.65 516-699.3 516-684v264q0 15.3-10.289 25.65-10.29 10.35-25.5 10.35Zm0 144Q465-240 454.5-250.289q-10.5-10.29-10.5-25.5Q444-291 454.289-301.5q10.29-10.5 25.5-10.5Q495-312 505.5-301.711q10.5 10.29 10.5 25.5Q516-261 505.711-250.5q-10.29 10.5-25.5 10.5Z"/></svg>
